X: 40271
T: Tobar Na'n Ceann
R: strathspey
M: 4/4
K: Gminor
K:G phrygian
G|:G,<CC>D E>B,B,>A,|G,<CC>D E>F G<c|G,<CC>D E>B,B,>G,|B,<B, F>E D>EF:|
G|e<cc>e d>c B<G|e<cc>d e>f g<b|e<cc<e d>c B<G|{e}dc/B/ f<B d>e f<g|
e<cc>e d>c B<G|e<cc<d e>f g<b|g>b g<e dB A/G/F/E/|D>B,F>B, D>E F<G:|

